X:1145
T:April Fool
M:6/8
L:1/8
R:jig
D:Emer Mayock: Merry Bits of Timber
Z:Devin McCabe
K:A
ABc ABc|~F3 FEF|ABc ece|~f3 ecB|
!ABc ABc|~F3 FEF|cfc ecB|1BAG A2A:|2BAG A2B||
!Bce ecA|~f3 ~a3|baf ecA|cec BAB|
!Bce ecA|~f3 ~a3|baf ecA|BAG A2B|
!Bce ecA|~f3 abc'|baf ecA|cec ~B3|
!ABc ABc|~F3 FEF|cfc ecB|BAG A2A||
